X:258
T: Die verlorene Ehre (25b), S.102
N: T0147
O: Luxemburg
S: Singendes Volk, Esch-Alzette 1937 posth.]
N: Hamm, ? Welter zu Diekirch, 26.3.1933
R: Liebeslieder]
M: 4/4
L: 1/8
K: D
F2 | D2F2F2A2 | E3FE2
EF | G2B2B2AG | F2A2A2
DD | D2F2FEDD | F2AddB
BB | A2AAG2AG | F2z4

